X:1
T:Title
%%score { ( 1 3 ) | ( 2 4 ) }
L:1/8
M:4/4
K:Ab
V:1 treble nm="Grand Piano"
V:3 treble 
V:2 bass 
V:4 bass 
V:1
 z4 z2 z[Q:1/4=88] [CE] | [CF][CE][A,C][CE] [Ec] [Ec]2 [EA] | BAFA [CA] [CE]2 [CE] | %3
 [A,DF][DFA][A,DF][DFA] [A,E][A,EA][EB][Ec] | [=DB]FGA B B2 E | [CF][CE][A,C][CE] [Ec] [Ec]2 [EA] | %6
 BAFA A E2 [A,CE] | [A,DF][DFA][DEG][A,DF] [A,E][A,EA][EB][Ec] |[M:7/8] [=DB][Dc][F=d] [AB] [Ge]3 | %9
[M:1/8] [Ge] |[M:4/4] [Ee][F=d][G_d]F G c2 B | [DB][CA][Ec][CA] [CE]3 [Ee] | %12
 [Ee][F=d][G_d]F G c2 B | AA[FB][FB] [=Ec]3 [Ec] |[M:7/8] cdc =A[EFc] [DFB]2 |[M:1/8] [DFB] | %16
[M:4/4] [=DAB][DAc][DAB][B,DF] [B,FA] [B,EG]2 [B,E] | [Ee]2 [Fd]2 c2 B2 | %18
[M:7/8] B[CA]-[CA]- [CA]3 z |] %19
V:2
 z4 z2 z [A,,A,] | [A,,A,][A,,A,][A,,E,][A,,A,] [A,,A,] [A,,A,]2 [C,A,] | %2
 [D,F,D][D,F,D][D,A,D][D,F,D] [A,,E,] [A,,A,]2 [A,,A,] | D,D,D,D, C,C,[B,,G,][A,,A,] | %4
 [B,,A,][A,B,=D][G,B,D][F,B,D] [E,G,_D] [E,G,D]2 [E,G,D] | %5
 [A,,A,][A,,A,][A,,E,][A,,A,] [A,,A,] [A,,A,]2 [C,A,] | [D,F,D][D,F,D][D,A,D][D,F,D] E, A,2 A,, | %7
 D,D,D,D, C,C,[B,,G,][A,,A,] |[M:7/8] [B,,A,][B,,F,][B,,B,] [F,=D] [E,B,]3 |[M:1/8] [E,B,] | %10
[M:4/4] [E,C][E,_C][E,B,][E,B,D] [E,B,D] [E,G,D]2 [E,G,D] | %11
 [A,,A,][A,,A,][A,,A,][A,,A,] [A,,A,]3 [A,C] | [E,C][E,_C][E,B,][E,B,D] [E,B,D] [E,G,D]2 [=E,G,D] | %13
 [F,A,C][F,A,C][D,A,][D,F,] [C,G,]3 [C,G,] |[M:7/8] [F,=A,E][F,A,E][F,A,E] [F,CE]B,, B,,2 | %15
[M:1/8] B,, |[M:4/4] B,,B,,B,,B,, E, E,2 D, | [C,A,]2 [D,A,]2 [E,A,E]2 [E,G,D]2 | %18
[M:7/8] [E,G,D][A,,A,]-[A,,A,]- [A,,A,]3 z |] %19
V:3
 x8 | x8 | x8 | x8 | x8 | x8 | z4 C4 | x8 |[M:7/8] x7 |[M:1/8] x |[M:4/4] x8 | x8 | x8 | x8 | %14
[M:7/8] x7 |[M:1/8] x |[M:4/4] x8 | x8 |[M:7/8] x7 |] %19
V:4
 x8 | x8 | x8 | x8 | x8 | x8 | z4 A,,4 | x8 |[M:7/8] x7 |[M:1/8] x |[M:4/4] x8 | x8 | x8 | x8 | %14
[M:7/8] x7 |[M:1/8] x |[M:4/4] x8 | x8 |[M:7/8] x7 |] %19

